X:11
T:The Lowlands Low (a)
M:C|
L:1/8
Q:1/4=3D90
K:G
D2|\
G2 GA G>G B,>C|D>E D>B, G,3B,|
C>B, CD E>F GB|A>G F>E  D2 D2|
E>D E>F G<A G>E|D>D G>B, B,<A,G,>B,|
D>E D>C B,2 A,2|G,6 D>D|
G4 A4|B4 G2D2|E>F G>A G2F2|G6||
